X:1
T:Title
%%score { 1 | ( 2 3 ) }
L:1/8
M:6/8
K:G
V:1 treble nm="Grand Piano"
V:2 treble 
V:3 treble 
V:1
 z3 z2[Q:1/4=93] G | B2 c BAG | [EG]2 [EA] [EG]FE | D2 G GAB |[M:5/8] [GB]3 [FA]2 |[M:1/8] G | %6
[M:3/4] B2 cB [FA]G | [EG]2 [EA][EG] FE | D2 [Ec] [DB]2 [B,DG] |[M:5/8] [CFA]3 [B,G]2 |[M:1/8] B | %11
[M:3/4] d2 ed BG | [FA]2 B c2 B | d2 ed B[DG] |[M:5/8] [DGB]3 [DFA]2 |[M:1/8] [A,CD] | %16
[M:3/4] [B,D]2 [B,G][DB] A[G,DG] | [G,CE]2 [G,EG] [Ec]2 E | D2 [Ec] [DB]2 [B,DG] | %19
[M:5/8] [CFA]3 [B,G]2 |] %20
V:2
 z3 z2 [G,B,D] | [G,DG]2 [G,EG] [DG][CD][K:bass][G,B,D] | [C,C]2 [C,C] z D[E,G,C] | %3
 [G,B,]2[K:treble] [G,B,D] D-[A,DF][G,DG] |[M:5/8][K:bass] [D,D]3 [D,D]2 |[M:1/8] [G,B,] | %6
[M:3/4][K:treble] [G,DG]2 [G,EG][G,DG][K:bass] [D,C][E,B,] | [C,C]2 .[C,C]2 D[C,G,C] | %8
 [B,,G,]2 [C,G,] [D,G,]2 D, |[M:5/8] D,3 G,,2 |[M:1/8][K:treble] [G,DG] | %11
[M:3/4] [G,B,G]2 [G,CG][G,B,G] [G,D][K:bass][G,B,D] | [D,D]2[K:treble] [G,DG] [A,DF]2 [G,DG] | %13
 [G,B,G]2 [G,CG][G,G]- [G,DG][K:bass]B,, |[M:5/8] D,3 D,2 |[M:1/8] F, |[M:3/4] z2 z .G,3 | %17
 C,2 C, [C,G,]2 [C,G,C] | [B,,G,]2 [C,G,] [D,G,]2 D, |[M:5/8] D,3 G,,2 |] %20
V:3
 x6 | z3 .G,3[K:bass] | z3 .[C,G,]3 | z3[K:treble] .B,3 |[M:5/8][K:bass] x5 |[M:1/8] x | %6
[M:3/4][K:treble] x4[K:bass] x2 | z2 z .[C,G,]3 | x6 |[M:5/8] x5 |[M:1/8][K:treble] x | %11
[M:3/4] x5[K:bass] x | x2[K:treble] x4 | z2 z B, z2[K:bass] |[M:5/8] x5 |[M:1/8] x | %16
[M:3/4] G,2 .G,2 CB,, | x6 | x6 |[M:5/8] x5 |] %20

